!!!COM: Music21
!!!OTL: mazurka_Seamus-O-Kanes
!!!OMV: mazurka_Seamus-O-Kanes
**kern
*clefG2
*k[f#]
*G:
*M3/4
=1
8gL
8bJ
4dd
8ddL
8eeJ
=
8ddL
8ccJ
4b
4g
=
8gL
8bJ
4a
8aL
8bJ
=
8ccL
8aJ
4f#
4d
=
8gL
8bJ
4dd
8ddL
8eeJ
=
8ddL
8ccJ
4b
4g
=
8gL
8bJ
4a
4d
=
4f#
2g
!!linebreak:original
=||
*M3/4
8gL
8bJ
4dd
8ddL
8eeJ
=
8ddL
8ccJ
4b
4g
=
8gL
8bJ
4a
8aL
8bJ
=
8ccL
8aJ
4f#
4d
=
8gL
8bJ
4dd
8ddL
8eeJ
=
8ddL
8ccJ
4b
4g
=
8gL
8bJ
4a
4d
=
4f#
4g
8bL
8ddJ
!!linebreak:original
=||
4gg
8ggL
8aaJ
8ggL
8eeJ
=
4dd
4b
8bL
8ccJ
=
4a
4aa
8aaL
8bbJ
=
8aaL
8ff#J
4dd
8eeL
8ff#J
=
4gg
8ggL
8aaJ
8ggL
8eeJ
=
4dd
4b
8ddL
8bJ
=
4a
4d
4f#
=
4g
8gL
8aJ
8bL
8ddJ
!!linebreak:original
=||
4gg
8ggL
8aaJ
8ggL
8eeJ
=
4dd
4b
8bL
8ccJ
=
4a
4aa
8aaL
8bbJ
=
8aaL
8ff#J
4dd
8eeL
8ff#J
=
4gg
8ggL
8aaJ
8ggL
8eeJ
=
4dd
4b
8ddL
8bJ
=
4a
4d
4f#
=
4g
8gL
8aJ
8bL
8ddJ
!!linebreak:original
=||
8gL
8f#J
8gL
8eJ
4d
=
4b
8bL
8ddJ
4cc
=
4a
8aL
8f#J
4d
=
4a
8aL
8ccJ
8bL
8aJ
=
4g
8gL
8eJ
4d
=
4b
8bL
8ddJ
4cc
=
4a
4ee
4dd
=
4d
4f#
4g
!!linebreak:original
=||
*M3/4
8gL
8bJ
4dd
8ddL
8eeJ
=
8ddL
8ccJ
4b
4g
=
8gL
8bJ
4a
8aL
8bJ
=
8ccL
8aJ
4f#
4d
=
8gL
8bJ
4dd
8ddL
8eeJ
=
8ddL
8ccJ
4b
4g
=
8gL
8bJ
4a
4d
=
4f#
2g
!!linebreak:original
=||
*M3/4
8gL
8bJ
4dd
8ddL
8eeJ
=
8ddL
8ccJ
4b
4g
=
8gL
8bJ
4a
8aL
8bJ
=
8ccL
8aJ
4f#
4d
=
8gL
8bJ
4dd
8ddL
8eeJ
=
8ddL
8ccJ
4b
4g
=
8gL
8bJ
4a
4d
=
4f#
4g
8bL
8ddJ
!!linebreak:original
=||
4gg
8ggL
8aaJ
8ggL
8eeJ
=
4dd
4b
8bL
8ccJ
=
4a
4aa
8aaL
8bbJ
=
8aaL
8ff#J
4dd
8eeL
8ff#J
=
4gg
8ggL
8aaJ
8ggL
8eeJ
=
4dd
4b
8ddL
8bJ
=
4a
4d
4f#
=
4g
8gL
8aJ
8bL
8ddJ
!!linebreak:original
=||
4gg
8ggL
8aaJ
8ggL
8eeJ
=
4dd
4b
8bL
8ccJ
=
4a
4aa
8aaL
8bbJ
=
8aaL
8ff#J
4dd
8eeL
8ff#J
=
4gg
8ggL
8aaJ
8ggL
8eeJ
=
4dd
4b
8ddL
8bJ
=
4a
4d
4f#
=
4g
8gL
8aJ
8bL
8ddJ
!!linebreak:original
=||
8gL
8f#J
8gL
8eJ
4d
=
4b
8bL
8ddJ
4cc
=
4a
8aL
8f#J
4d
=
4a
8aL
8ccJ
8bL
8aJ
=
4g
8gL
8eJ
4d
=
4b
8bL
8ddJ
4cc
=
4a
4ee
4dd
=
4d
4f#
4g
=||
*-
